;FLAVOR:Marlin
;TIME:7414
;Filament used: 3.50177m
;Layer height: 0.25
;MINX:96.364
;MINY:21.925
;MINZ:0.24
;MAXX:142.977
;MAXY:206.488
;MAXZ:162.965
;Generated with Cura_SteamEngine 5.2.2
M140 S60
M105
M190 S60
M104 S240
M105
M109 S240
M82 ;absolute extrusion mode
; Ender 3 Custom Start G-code
G92 E0 ; Reset Extruder
G28 ; Home all axes
G1 Z2.0 F3000 ; Move Z Axis up little to prevent scratching of Heat Bed
G1 X0.1 Y20 Z0.3 F5000.0 ; Move to start position
G1 X0.1 Y200.0 Z0.3 F1500.0 E15 ; Draw the first line
G1 X0.4 Y200.0 Z0.3 F5000.0 ; Move to side a little
G1 X0.4 Y20 Z0.3 F1500.0 E30 ; Draw the second line
G92 E0 ; Reset Extruder
G1 Z2.0 F3000 ; Move Z Axis up little to prevent scratching of Heat Bed
G1 X5 Y20 Z0.3 F5000.0 ; Move over to prevent blob squish
G92 E0
G92 E0
G1 F1800 E-2
;LAYER_COUNT:603
;LAYER:-4
M106 S13
G0 F4800 X116.962 Y154.037 Z0.24
;TYPE:SUPPORT-INTERFACE
G1 F2700 E0.20788
G1 F3600 X116.576 Y154.424 E0.25151
G1 X116.405 Y154.612 E0.27179
G1 X116.144 Y154.924 E0.30426
G1 X115.912 Y155.225 E0.3346
G1 X115.633 Y155.631 E0.37392
G1 X115.447 Y155.933 E0.40224
G1 X115.178 Y156.419 E0.44658
G1 X115.016 Y156.76 E0.47671
G1 X114.837 Y157.18 E0.51316
G1 X114.742 Y157.432 E0.53465
G1 X114.594 Y157.888 E0.57292
G1 X114.486 Y158.297 E0.60669
G1 X114.383 Y158.783 E0.64635
G1 X114.328 Y159.13 E0.67439
G1 X114.277 Y159.57 E0.70975
G1 X114.258 Y159.854 E0.73247
G1 X114.247 Y160.297 E0.76784
G1 X114.257 Y160.739 E0.80313
G1 X114.304 Y161.311 E0.84895
G1 X114.388 Y161.87 E0.89407
G1 X114.47 Y162.272 E0.92682
G1 X114.543 Y162.566 E0.951
G1 X114.626 Y162.838 E0.9737
G1 X114.82 Y163.332 E1.01607
G1 X116.704 Y167.493 E1.38068
G1 X122.399 Y179.873 E2.46845
G1 X125.56 Y186.609 E3.06241
G1 X127.771 Y191.231 E3.4714
G1 X129.391 Y194.555 E3.76657
G1 X129.908 Y195.58 E3.8582
G1 X131.664 Y198.999 E4.16502
G1 X133.442 Y202.57 E4.48345
G1 X133.804 Y203.267 E4.54614
G1 X134.123 Y203.838 E4.59835
G1 X134.375 Y204.243 E4.63643
G1 X134.727 Y204.721 E4.68381
G1 X134.926 Y204.953 E4.70821
G1 X135.268 Y205.295 E4.74682
G1 X135.68 Y205.62 E4.78871
G1 X135.923 Y205.785 E4.81215
G1 X136.174 Y205.931 E4.83533
G1 X136.44 Y206.065 E4.85911
G1 X136.695 Y206.174 E4.88125
G1 X136.97 Y206.271 E4.90452
G1 X137.251 Y206.35 E4.92782
G1 X137.545 Y206.414 E4.95184
G1 X137.82 Y206.456 E4.97405
G1 X138.114 Y206.482 E4.99761
G1 X138.403 Y206.488 E5.02068
G1 X138.7 Y206.476 E5.04441
G1 X138.975 Y206.448 E5.06647
G1 X139.268 Y206.399 E5.09019
G1 X139.559 Y206.33 E5.11406
G1 X139.825 Y206.251 E5.13621
G1 X140.107 Y206.146 E5.16023
G1 X140.364 Y206.031 E5.1827
G1 X140.623 Y205.896 E5.20602
G1 X140.87 Y205.744 E5.22917
G1 X141.109 Y205.577 E5.25244
G1 X141.34 Y205.394 E5.27597
G1 X141.556 Y205.198 E5.29925
G1 X141.751 Y204.999 E5.32149
G1 X141.944 Y204.774 E5.34515
G1 X142.123 Y204.535 E5.36899
G1 X142.273 Y204.308 E5.39071
G1 X142.425 Y204.04 E5.4153
G1 X142.556 Y203.774 E5.43897
G1 X142.666 Y203.514 E5.46151
G1 X142.754 Y203.247 E5.48395
G1 X142.833 Y202.958 E5.50786
G1 X142.932 Y202.452 E5.54902
G1 X142.977 Y201.871 E5.59554
G1 X142.977 Y201.713 E5.60815
G1 X142.977 Y201.574 E5.61924
G1 X142.957 Y201.283 E5.64253
G1 X142.923 Y201.014 E5.66417
G1 X142.812 Y200.48 E5.70771
G1 X142.723 Y200.138 E5.73592
G1 X142.311 Y198.765 E5.85035
G1 X141.432 Y196.071 E6.07655
G1 X140.941 Y194.499 E6.20801
G1 X140.6 Y193.314 E6.30644
G1 X136.688 Y178.994 E7.49141
G1 X130.997 Y157.414 E9.27292
G1 X130.847 Y156.939 E9.31268
G1 X130.746 Y156.69 E9.33413
G1 X130.511 Y156.199 E9.37758
G1 X130.34 Y155.893 E9.40556
G1 X130.163 Y155.606 E9.43248
G1 X129.873 Y155.186 E9.47322
G1 X129.527 Y154.738 E9.5184
G1 X129.145 Y154.319 E9.56366
G1 X128.871 Y154.044 E9.59465
G1 X128.509 Y153.719 E9.63348
G1 X128.137 Y153.421 E9.67153
G1 X127.88 Y153.234 E9.6969
G1 X127.558 Y153.017 E9.7279
G1 X127.181 Y152.792 E9.76294
G1 X126.766 Y152.569 E9.80055
G1 X126.437 Y152.416 E9.82951
G1 X126.092 Y152.271 E9.85939
G1 X125.69 Y152.126 E9.8935
G1 X125.22 Y151.982 E9.93274
G1 X124.893 Y151.897 E9.95971
G1 X124.411 Y151.8 E9.99896
G1 X123.979 Y151.735 E10.03383
G1 X123.611 Y151.697 E10.06336
G1 X123.158 Y151.672 E10.09957
G1 X122.784 Y151.671 E10.12943
G1 X122.363 Y151.687 E10.16306
G1 X121.985 Y151.72 E10.19335
G1 X121.669 Y151.761 E10.21878
G1 X121.312 Y151.821 E10.24768
G1 X120.812 Y151.931 E10.28855
G1 X120.398 Y152.044 E10.3228
G1 X120.043 Y152.161 E10.35264
G1 X119.699 Y152.29 E10.38197
G1 X119.194 Y152.51 E10.42594
G1 X118.952 Y152.63 E10.4475
G1 X118.602 Y152.821 E10.47933
G1 X118.28 Y153.014 E10.50929
G1 X117.826 Y153.319 E10.55295
G1 X117.605 Y153.485 E10.57502
G1 X117.25 Y153.779 E10.61181
G1 X116.962 Y154.037 E10.64268
G1 F1800 E8.64268
G0 F4800 X121.617 Y152.174
G1 F2700 E10.85055
G1 F3600 X114.746 Y159.045 E11.62621
G0 F4800 X114.713 Y161.34
G1 F3600 X123.923 Y152.13 E12.66591
G0 F4800 X125.746 Y152.571
G1 F3600 X115.176 Y163.14 E13.85909
G0 F4800 X115.879 Y164.7
G1 F3600 X127.27 Y153.309 E15.14501
G0 F4800 X128.549 Y154.292
G1 F3600 X116.584 Y166.258 E16.49577
G0 F4800 X117.291 Y167.814
G1 F3600 X129.604 Y155.501 E17.88577
G0 F4800 X130.424 Y156.943
G1 F3600 X118.004 Y169.363 E19.28785
G0 F4800 X118.717 Y170.913
G1 F3600 X130.924 Y158.706 E20.66588
G0 F4800 X131.396 Y160.496
G1 F3600 X119.431 Y172.462 E22.01665
G0 F4800 X120.143 Y174.012
G1 F3600 X131.869 Y162.287 E23.34033
G0 F4800 X132.34 Y164.078
G1 F3600 X120.856 Y175.562 E24.63674
G0 F4800 X121.57 Y177.111
G1 F3600 X132.813 Y165.868 E25.90595
G0 F4800 X133.285 Y167.659
G1 F3600 X122.282 Y178.661 E27.148
G0 F4800 X122.999 Y180.208
G1 F3600 X133.757 Y169.45 E28.36246
G0 F4800 X134.229 Y171.24
G1 F3600 X123.721 Y181.748 E29.54869
G0 F4800 X124.444 Y183.288
G1 F3600 X134.701 Y173.031 E30.70659
G0 F4800 X135.173 Y174.822
G1 F3600 X125.167 Y184.828 E31.83616
G0 F4800 X125.889 Y186.368
G1 F3600 X135.645 Y176.612 E32.9375
G0 F4800 X136.118 Y178.403
G1 F3600 X126.621 Y187.899 E34.00954
G0 F4800 X127.354 Y189.429
G1 F3600 X136.598 Y180.185 E35.05309
G0 F4800 X137.083 Y181.962
G1 F3600 X128.086 Y190.96 E36.0688
G0 F4800 X128.826 Y192.482
G1 F3600 X137.569 Y183.74 E37.05573
G0 F4800 X138.054 Y185.517
G1 F3600 X129.567 Y194.004 E38.01382
G0 F4800 X130.324 Y195.51
G1 F3600 X138.54 Y187.294 E38.94131
G0 F4800 X139.025 Y189.071
G1 F3600 X131.091 Y197.006 E39.83702
G0 F4800 X131.858 Y198.501
G1 F3600 X139.511 Y190.848 E40.70096
G0 F4800 X139.997 Y192.625
G1 F3600 X132.613 Y200.009 E41.53453
G0 F4800 X133.365 Y201.519
G1 F3600 X140.494 Y194.391 E42.33926
G0 F4800 X141.028 Y196.12
G1 F3600 X134.127 Y203.02 E43.11825
G0 F4800 X134.997 Y204.413
G1 F3600 X141.583 Y197.827 E43.86173
G0 F4800 X142.128 Y199.545
G1 F3600 X136.194 Y205.479 E44.53161
G0 F4800 X137.876 Y206.06
G1 F3600 X142.562 Y201.374 E45.06061
G1 F1800 E43.06061
G0 F300 X142.562 Y201.374 Z0.615
G0 F4800 X136.175 Y205.471
;TIME_ELAPSED:20.869251
;LAYER:-3
M106 S11.5
;TYPE:SUPPORT
G1 F2700 E45.26848
G1 F3600 X134.683 Y203.979 E45.53166
G1 X134.79 Y204.142 E45.55597
G1 X135.022 Y204.45 E45.60407
G1 X135.232 Y204.696 E45.64441
G1 X135.532 Y204.994 E45.69715
G1 X135.91 Y205.293 E45.75726
G1 X136.241 Y205.516 E45.80704
G1 X136.61 Y205.703 E45.85864
G1 X136.842 Y205.802 E45.8901
G1 X137.083 Y205.886 E45.92193
G1 X137.351 Y205.963 E45.95671
G1 X137.633 Y206.023 E45.99267
G1 X138.21 Y206.092 E46.06515
G1 X133.093 Y200.976 E46.96764
G1 X132.018 Y198.817 E47.26846
G1 X131.67 Y198.138 E47.36362
G1 X139.482 Y205.95 E48.74157
G1 X139.954 Y205.776 E48.80431
G1 X140.183 Y205.673 E48.83563
G1 X140.468 Y205.522 E48.87586
G1 X130.182 Y195.236 E50.69019
G1 X129.727 Y194.335 E50.81608
G1 X128.803 Y192.442 E51.07882
G1 X141.286 Y204.925 E53.28067
G1 X141.631 Y204.524 E53.34665
G1 X141.917 Y204.143 E53.40607
G1 X127.484 Y189.71 E55.95189
G1 X126.19 Y187.002 E56.32622
G1 X142.358 Y203.169 E59.17798
G1 X142.448 Y202.847 E59.21968
G1 X142.532 Y202.423 E59.2736
G1 X142.568 Y201.965 E59.3309
G1 X124.921 Y184.318 E62.44362
G1 X123.671 Y181.654 E62.81065
G1 X142.377 Y200.359 E66.11009
G1 X141.944 Y198.93 E66.29632
G1 X141.743 Y198.311 E66.3775
G1 X122.436 Y179.004 E69.78303
G1 X121.214 Y176.368 E70.14542
G1 X141.058 Y196.212 E73.64567
G1 X140.56 Y194.615 E73.85432
G1 X140.432 Y194.172 E73.91183
G1 X120.001 Y173.741 E77.51562
G1 X118.808 Y171.134 E77.87321
G1 X139.891 Y192.217 E81.59201
G1 X139.36 Y190.271 E81.8436
G1 X117.615 Y168.526 E85.67917
G1 X116.435 Y165.932 E86.03461
G1 X138.822 Y188.32 E89.9835
G1 X138.284 Y186.367 E90.23617
G1 X115.248 Y163.331 E94.29945
G1 X115.005 Y162.709 E94.38274
G1 X114.92 Y162.435 E94.41852
G1 X114.856 Y162.18 E94.45132
G1 X114.78 Y161.801 E94.49953
G1 X114.719 Y161.388 E94.5516
G1 X137.749 Y184.418 E98.61382
G1 X137.221 Y182.476 E98.86483
G1 X114.655 Y159.91 E102.84522
G1 X114.679 Y159.556 E102.88947
G1 X114.721 Y159.197 E102.93455
G1 X114.808 Y158.649 E103.00376
G1 X136.694 Y180.534 E106.86411
G1 X136.169 Y178.596 E107.11454
G1 X115.124 Y157.551 E110.82664
G1 X115.249 Y157.227 E110.86995
G1 X115.542 Y156.555 E110.96139
G1 X135.654 Y176.666 E114.50882
G1 X135.138 Y174.736 E114.758
G1 X116.082 Y155.68 E118.11926
G1 X116.244 Y155.446 E118.15476
G1 X116.447 Y155.183 E118.19619
G1 X116.698 Y154.882 E118.24508
G1 X134.622 Y172.806 E121.40666
G1 X134.109 Y170.878 E121.6555
G1 X117.4 Y154.169 E124.60278
G1 X117.836 Y153.811 E124.67314
G1 X118.195 Y153.551 E124.72843
G1 X133.605 Y168.961 E127.44657
G1 X133.102 Y167.043 E127.69389
G1 X119.075 Y153.016 E130.16809
G1 X119.37 Y152.868 E130.20925
G1 X119.788 Y152.684 E130.26622
G1 X120.056 Y152.583 E130.30194
G1 X132.598 Y165.125 E132.5142
G1 X132.095 Y163.208 E132.76139
G1 X121.143 Y152.256 E134.6932
G1 X121.714 Y152.158 E134.76546
G1 X122.043 Y152.115 E134.80684
G1 X122.387 Y152.085 E134.84991
G1 X131.593 Y161.292 E136.47383
G1 X131.095 Y159.379 E136.72039
G1 X123.837 Y152.121 E138.00061
G1 X124.358 Y152.194 E138.06623
G1 X124.785 Y152.283 E138.12063
G1 X125.129 Y152.37 E138.16489
G1 X125.552 Y152.5 E138.22008
G1 X125.949 Y152.644 E138.27276
G1 X126.273 Y152.779 E138.31653
G1 X126.585 Y152.925 E138.3595
G1 X126.973 Y153.132 E138.41435
G1 X127.347 Y153.356 E138.46872
G1 X127.638 Y153.551 E138.51241
G1 X127.907 Y153.747 E138.55393
G1 X128.252 Y154.025 E138.60919
G1 X128.59 Y154.326 E138.66564
G1 X128.846 Y154.584 E138.71097
G1 X129.223 Y154.995 E138.78053
G1 X129.545 Y155.411 E138.84615
G1 X129.763 Y155.724 E138.89372
G1 X129.99 Y156.088 E138.94722
G1 X130.152 Y156.373 E138.98811
G1 X130.428 Y156.949 E139.06778
G1 X130.593 Y157.463 E139.13511
G1 X125.674 Y152.544 E140.00276
G1 F1800 E138.00276
G0 F300 X125.674 Y152.544 Z0.865
G0 F4800 X115.587 Y156.507
;TIME_ELAPSED:38.301411
;LAYER:-2
M107
;TYPE:SUPPORT-INTERFACE
G1 F2700 E140.21064
G1 F4800 X119.082 Y153.012 E140.41613
G1 X118.796 Y153.169 E140.4297
G1 X118.496 Y153.348 E140.44422
G1 X118.116 Y153.603 E140.46325
G1 X117.836 Y153.811 E140.47775
G1 X117.502 Y154.085 E140.49571
G1 X117.246 Y154.316 E140.51004
G1 X116.932 Y154.628 E140.52845
G1 X116.706 Y154.873 E140.5423
G1 X116.447 Y155.183 E140.5591
G1 X116.244 Y155.446 E140.57291
G1 X115.964 Y155.854 E140.59348
G1 X115.797 Y156.124 E140.60668
G1 X115.474 Y156.711 E140.63454
G1 X115.249 Y157.227 E140.65794
G1 X115.134 Y157.525 E140.67122
G1 X120.09 Y152.57 E140.96259
G1 X120.558 Y152.411 E140.98314
G1 X120.909 Y152.316 E140.99825
G1 X114.886 Y158.339 E141.35238
G1 X114.731 Y159.06 E141.38304
G1 X121.616 Y152.175 E141.78786
G1 X122.273 Y152.083 E141.81544
G1 X114.661 Y159.696 E142.26302
G1 X114.646 Y160.276 E142.28714
G1 X122.854 Y152.068 E142.76974
G1 X123.151 Y152.071 E142.78209
G1 X123.404 Y152.084 E142.79262
G1 X114.664 Y160.824 E143.3065
G1 X114.707 Y161.347 E143.32832
G1 X123.924 Y152.129 E143.87027
G1 X124.414 Y152.206 E143.8909
G1 X114.787 Y161.832 E144.4569
G1 X114.886 Y162.299 E144.47674
G1 X124.879 Y152.306 E145.06429
G1 X125.322 Y152.428 E145.0834
G1 X115.015 Y162.735 E145.68941
G1 X115.174 Y163.142 E145.70758
G1 X125.746 Y152.57 E146.32917
G1 X126.153 Y152.729 E146.34734
G1 X115.349 Y163.533 E146.98257
G1 X115.525 Y163.922 E147.00032
G1 X126.543 Y152.905 E147.64811
G1 X126.914 Y153.099 E147.66551
G1 X115.702 Y164.311 E148.32474
G1 X115.878 Y164.701 E148.34252
G1 X127.27 Y153.309 E149.01233
G1 X127.612 Y153.533 E149.02933
G1 X116.054 Y165.091 E149.70889
G1 X116.23 Y165.48 E149.72664
G1 X127.938 Y153.772 E150.41503
G1 X128.252 Y154.024 E150.43177
G1 X116.407 Y165.869 E151.12821
G1 X116.583 Y166.259 E151.146
G1 X128.552 Y154.29 E151.84973
G1 X128.835 Y154.572 E151.86634
G1 X116.759 Y166.648 E152.57636
G1 X116.936 Y167.037 E152.59413
G1 X129.105 Y154.868 E153.30962
G1 X129.363 Y155.176 E153.32633
G1 X117.112 Y167.427 E154.04664
G1 X117.29 Y167.814 E154.06435
G1 X129.606 Y155.499 E154.78845
G1 X129.833 Y155.837 E154.80538
G1 X117.468 Y168.203 E155.53242
G1 X117.645 Y168.591 E155.55015
G1 X130.047 Y156.189 E156.27934
G1 X130.241 Y156.56 E156.29675
G1 X117.823 Y168.979 E157.02691
G1 X118 Y169.367 E157.04464
G1 X130.425 Y156.943 E157.77515
G1 X130.563 Y157.37 E157.79381
G1 X118.178 Y169.755 E158.522
G1 X118.356 Y170.143 E158.53975
G1 X130.686 Y157.812 E159.26473
G1 X130.803 Y158.261 E159.28402
G1 X118.533 Y170.531 E160.00545
G1 X118.711 Y170.919 E160.0232
G1 X130.92 Y158.71 E160.74104
G1 X131.037 Y159.159 E160.76033
G1 X118.888 Y171.307 E161.47462
G1 X119.066 Y171.696 E161.4924
G1 X131.154 Y159.608 E162.20313
G1 X131.271 Y160.056 E162.22238
G1 X119.243 Y172.084 E162.92958
G1 X119.421 Y172.472 E162.94733
G1 X131.388 Y160.505 E163.65095
G1 X131.504 Y160.954 E163.67023
G1 X119.599 Y172.86 E164.37022
G1 X119.776 Y173.248 E164.38795
G1 X131.622 Y161.402 E165.08445
G1 X131.738 Y161.851 E165.10373
G1 X119.954 Y173.636 E165.79662
G1 X120.131 Y174.024 E165.81435
G1 X131.856 Y162.3 E166.5037
G1 X131.973 Y162.748 E166.52295
G1 X120.309 Y174.412 E167.20875
G1 X120.488 Y174.799 E167.22648
G1 X132.091 Y163.196 E167.90869
G1 X132.209 Y163.644 E167.92795
G1 X120.667 Y175.186 E168.60658
G1 X120.845 Y175.573 E168.62429
G1 X132.326 Y164.092 E169.29933
G1 X132.444 Y164.54 E169.31859
G1 X121.025 Y175.959 E169.98998
G1 X121.204 Y176.346 E170.00771
G1 X132.562 Y164.988 E170.67551
G1 X132.679 Y165.436 E170.69476
G1 X121.383 Y176.732 E171.35893
G1 X121.562 Y177.118 E171.37662
G1 X132.797 Y165.884 E172.03716
G1 X132.914 Y166.332 E172.05641
G1 X121.741 Y177.505 E172.71334
G1 X121.921 Y177.891 E172.73105
G1 X133.032 Y166.78 E173.38433
G1 X133.15 Y167.228 E173.40359
G1 X122.1 Y178.278 E174.05329
G1 X122.279 Y178.665 E174.07102
G1 X133.267 Y167.676 E174.7171
G1 X133.385 Y168.124 E174.73636
G1 X122.458 Y179.051 E175.37883
G1 X122.637 Y179.438 E175.39655
G1 X133.503 Y168.572 E176.03543
G1 X133.62 Y169.021 E176.05472
G1 X122.817 Y179.824 E176.6899
G1 X122.997 Y180.209 E176.70757
G1 X133.738 Y169.468 E177.3391
G1 X133.856 Y169.917 E177.3584
G1 X123.178 Y180.595 E177.98622
G1 X123.357 Y180.981 E178.00391
G1 X133.973 Y170.365 E178.62809
G1 X134.091 Y170.812 E178.64731
G1 X123.537 Y181.366 E179.26785
G1 X123.718 Y181.751 E179.28554
G1 X134.208 Y171.261 E179.90231
G1 X134.328 Y171.707 E179.92151
G1 X123.897 Y182.137 E180.53478
G1 X124.078 Y182.523 E180.55251
G1 X134.447 Y172.153 E181.1622
G1 X134.566 Y172.6 E181.18143
G1 X124.258 Y182.908 E181.7875
G1 X124.438 Y183.294 E181.8052
G1 X134.686 Y173.046 E182.40775
G1 X134.805 Y173.492 E182.42694
G1 X124.62 Y183.678 E183.02581
G1 X124.801 Y184.062 E183.04346
G1 X134.924 Y173.939 E183.63865
G1 X135.043 Y174.385 E183.65784
G1 X124.983 Y184.446 E184.24936
G1 X125.164 Y184.831 E184.26705
G1 X135.163 Y174.832 E184.85495
G1 X135.282 Y175.279 E184.87418
G1 X125.345 Y185.216 E185.45844
