;FLAVOR:Marlin
;TIME:7401
;Filament used: 3.50345m
;Layer height: 0.25
;MINX:94.48
;MINY:21.922
;MINZ:0.24
;MAXX:139.108
;MAXY:206.484
;MAXZ:162.965
;Generated with Cura_SteamEngine 5.2.2
M140 S60
M105
M190 S60
M104 S240
M105
M109 S240
M82 ;absolute extrusion mode
; Ender 3 Custom Start G-code
G92 E0 ; Reset Extruder
G28 ; Home all axes
G1 Z2.0 F3000 ; Move Z Axis up little to prevent scratching of Heat Bed
G1 X0.1 Y20 Z0.3 F5000.0 ; Move to start position
G1 X0.1 Y200.0 Z0.3 F1500.0 E15 ; Draw the first line
G1 X0.4 Y200.0 Z0.3 F5000.0 ; Move to side a little
G1 X0.4 Y20 Z0.3 F1500.0 E30 ; Draw the second line
G92 E0 ; Reset Extruder
G1 Z2.0 F3000 ; Move Z Axis up little to prevent scratching of Heat Bed
G1 X5 Y20 Z0.3 F5000.0 ; Move over to prevent blob squish
G92 E0
G92 E0
G1 F1800 E-2
;LAYER_COUNT:603
;LAYER:-4
M106 S12.3
G0 F4800 X124.49 Y154.038 Z0.24
;TYPE:SUPPORT-INTERFACE
G1 F2700 E0.20788
G1 F3600 X124.211 Y154.315 E0.23926
G1 X123.827 Y154.736 E0.28474
G1 X123.424 Y155.261 E0.33758
G1 X123.199 Y155.593 E0.36959
G1 X122.971 Y155.966 E0.40449
G1 X122.794 Y156.291 E0.43403
G1 X122.625 Y156.644 E0.46527
G1 X122.509 Y156.928 E0.48976
G1 X122.36 Y157.407 E0.5298
G1 X119.972 Y166.549 E1.28404
G1 X115.626 Y182.827 E2.62893
G1 X112.783 Y193.202 E3.48764
G1 X112.412 Y194.494 E3.59494
G1 X111.985 Y195.874 E3.71025
G1 X111.168 Y198.372 E3.92005
G1 X110.697 Y199.889 E4.04684
G1 X110.519 Y200.556 E4.10195
G1 X110.417 Y201.13 E4.14849
G1 X110.382 Y201.457 E4.17474
G1 X110.367 Y201.978 E4.21634
G1 X110.451 Y202.67 E4.27199
G1 X110.541 Y203.117 E4.30839
G1 X110.685 Y203.54 E4.34405
G1 X110.801 Y203.815 E4.36788
G1 X110.927 Y204.065 E4.39023
G1 X111.066 Y204.306 E4.41243
G1 X111.24 Y204.564 E4.43727
G1 X111.409 Y204.786 E4.45955
G1 X111.601 Y205.007 E4.48292
G1 X111.806 Y205.214 E4.50617
G1 X112.018 Y205.404 E4.52889
G1 X112.252 Y205.587 E4.55261
G1 X112.494 Y205.755 E4.57612
G1 X112.745 Y205.904 E4.59942
G1 X112.989 Y206.03 E4.62134
G1 X113.279 Y206.154 E4.64652
G1 X113.532 Y206.246 E4.66801
G1 X114.108 Y206.408 E4.71577
G1 X114.478 Y206.456 E4.74556
G1 X114.782 Y206.48 E4.7699
G1 X115.083 Y206.484 E4.79393
G1 X115.376 Y206.47 E4.81734
G1 X115.649 Y206.438 E4.83928
G1 X115.935 Y206.388 E4.86246
G1 X116.226 Y206.317 E4.88637
G1 X116.501 Y206.233 E4.90932
G1 X116.769 Y206.13 E4.93224
G1 X117.044 Y206.004 E4.95639
G1 X117.293 Y205.871 E4.97892
G1 X117.54 Y205.717 E5.00216
G1 X117.78 Y205.547 E5.02563
G1 X118.001 Y205.367 E5.04839
G1 X118.214 Y205.171 E5.07149
G1 X118.627 Y204.732 E5.1196
G1 X119.159 Y203.966 E5.19405
G1 X119.456 Y203.44 E5.24227
G1 X119.932 Y202.532 E5.3241
G1 X121.714 Y198.949 E5.64354
G1 X123.94 Y194.599 E6.03359
G1 X125.636 Y191.123 E6.34233
G1 X129.318 Y183.372 E7.02731
G1 X133.303 Y174.804 E7.7816
G1 X138.59 Y163.204 E8.7992
G1 X138.717 Y162.872 E8.82758
G1 X138.808 Y162.586 E8.85154
G1 X138.922 Y162.106 E8.89092
G1 X138.99 Y161.737 E8.92087
G1 X139.038 Y161.398 E8.9482
G1 X139.077 Y161.035 E8.97734
G1 X139.108 Y160.486 E9.02123
G1 X139.103 Y160.147 E9.0483
G1 X139.098 Y159.939 E9.06491
G1 X139.066 Y159.489 E9.10092
G1 X139.012 Y159.044 E9.1367
G1 X138.95 Y158.684 E9.16586
G1 X138.816 Y158.085 E9.21486
G1 X138.606 Y157.425 E9.27014
G1 X138.465 Y157.062 E9.30123
G1 X138.28 Y156.642 E9.33786
G1 X138.107 Y156.297 E9.36867
G1 X137.865 Y155.855 E9.4089
G1 X137.522 Y155.341 E9.45822
G1 X137.236 Y154.956 E9.49651
G1 X137.008 Y154.681 E9.52502
G1 X136.711 Y154.354 E9.56028
G1 X136.397 Y154.043 E9.59556
G1 X136.191 Y153.853 E9.61793
G1 X135.748 Y153.488 E9.66375
G1 X135.46 Y153.274 E9.69239
G1 X135.108 Y153.037 E9.72627
G1 X134.881 Y152.896 E9.7476
G1 X134.383 Y152.621 E9.79301
G1 X134.052 Y152.461 E9.82235
G1 X133.653 Y152.288 E9.85707
G1 X133.318 Y152.163 E9.88561
G1 X132.95 Y152.042 E9.91653
G1 X132.496 Y151.92 E9.95406
G1 X132.079 Y151.827 E9.98816
G1 X131.707 Y151.764 E10.01828
G1 X131.278 Y151.712 E10.05278
G1 X130.909 Y151.684 E10.08232
G1 X130.481 Y151.669 E10.1165
G1 X130.223 Y151.671 E10.1371
G1 X129.763 Y151.696 E10.17387
G1 X129.392 Y151.733 E10.20363
G1 X128.962 Y151.796 E10.23832
G1 X128.586 Y151.869 E10.2689
G1 X128.16 Y151.973 E10.3039
G1 X127.827 Y152.071 E10.33161
G1 X127.384 Y152.223 E10.369
G1 X126.895 Y152.426 E10.41126
G1 X126.497 Y152.616 E10.44647
G1 X126.182 Y152.785 E10.475
G1 X125.902 Y152.951 E10.50098
G1 X125.621 Y153.133 E10.52771
G1 X125.233 Y153.408 E10.56567
G1 X124.91 Y153.663 E10.59852
G1 X124.49 Y154.038 E10.64347
G0 F4800 X128.204 Y152.375
G1 F3600 X122.632 Y157.947 E11.27248
G0 F4800 X121.833 Y161.009
G1 F3600 X130.764 Y152.078 E12.28069
G0 F4800 X132.714 Y152.391
G1 F3600 X121.033 Y164.072 E13.59934
G0 F4800 X120.229 Y167.138
G1 F3600 X134.324 Y153.044 E15.19045
G0 F4800 X135.681 Y153.949
G1 F3600 X119.404 Y170.226 E17.02794
G0 F4800 X118.581 Y173.312
G1 F3600 X136.816 Y155.077 E19.08646
G0 F4800 X137.724 Y156.431
G1 F3600 X117.756 Y176.399 E21.34062
G0 F4800 X116.932 Y179.487
G1 F3600 X138.381 Y158.037 E23.76203
G0 F4800 X138.697 Y159.984
G1 F3600 X116.108 Y182.573 E26.31207
G0 F4800 X115.257 Y185.686
G1 F3600 X138.401 Y162.543 E28.92471
G0 F4800 X136.598 Y166.609
G1 F3600 X114.403 Y188.803 E31.43022
G0 F4800 X113.549 Y191.92
G1 F3600 X134.703 Y170.766 E33.81826
G0 F4800 X132.804 Y174.928
G1 F3600 X112.647 Y195.085 E36.09376
G0 F4800 X111.573 Y198.421
G1 F3600 X130.835 Y179.159 E38.26822
G0 F4800 X128.864 Y183.393
G1 F3600 X110.781 Y201.476 E40.30958
G0 F4800 X111.078 Y203.442
G1 F3600 X126.816 Y187.705 E42.08617
G0 F4800 X124.742 Y192.041
G1 F3600 X111.971 Y204.812 E43.52787
G0 F4800 X113.313 Y205.733
G1 F3600 X122.487 Y196.559 E44.56351
G1 F1800 E42.56351
G0 F4800 X120.185 Y201.123
G1 F2700 E44.77139
G1 F3600 X115.233 Y206.075 E45.33041
G1 F1800 E43.33041
G0 F300 X115.233 Y206.075 Z0.615
G0 F4800 X114.058 Y205.982
;TIME_ELAPSED:18.791034
;LAYER:-3
M106 S11.9
;TYPE:SUPPORT
G1 F2700 E45.53829
G1 F3600 X110.884 Y202.808 E46.09814
G1 X110.923 Y203.011 E46.12393
G1 X111.102 Y203.519 E46.19111
G1 X111.273 Y203.868 E46.23958
G1 X111.408 Y204.1 E46.27306
G1 X111.565 Y204.333 E46.3081
G1 X111.72 Y204.536 E46.33996
G1 X111.884 Y204.726 E46.37126
G1 X112.084 Y204.928 E46.40672
G1 X112.277 Y205.099 E46.43888
G1 X112.487 Y205.263 E46.47211
G1 X112.702 Y205.411 E46.50467
G1 X113.051 Y205.62 E46.5554
G1 X113.42 Y205.781 E46.60562
G1 X113.658 Y205.867 E46.63718
G1 X114.148 Y206.008 E46.70078
G1 X114.528 Y206.057 E46.74856
G1 X114.804 Y206.079 E46.7831
G1 X115.079 Y206.084 E46.8174
G1 X115.549 Y206.059 E46.87611
G1 X110.793 Y201.302 E47.7151
G1 X110.908 Y200.646 E47.79817
G1 X111.043 Y200.138 E47.86373
G1 X116.659 Y205.755 E48.85441
G1 X117.089 Y205.526 E48.91517
G1 X117.321 Y205.382 E48.94923
G1 X117.542 Y205.223 E48.98319
G1 X111.37 Y199.051 E50.07186
G1 X111.714 Y197.981 E50.21204
G1 X118.273 Y204.54 E51.36897
G1 X118.849 Y203.701 E51.49591
G1 X112.062 Y196.915 E52.69297
G1 X112.409 Y195.848 E52.83291
G1 X119.347 Y202.786 E54.05669
G1 X119.59 Y202.323 E54.12191
G1 X119.825 Y201.849 E54.1879
G1 X112.744 Y194.769 E55.43682
G1 X113.062 Y193.672 E55.57927
G1 X120.295 Y200.906 E56.85518
G1 X120.766 Y199.962 E56.98676
G1 X113.368 Y192.564 E58.29168
G1 X113.67 Y191.451 E58.43552
G1 X121.235 Y199.017 E59.76999
G1 X121.712 Y198.079 E59.90124
G1 X113.972 Y190.339 E61.26649
G1 X114.276 Y189.23 E61.40991
G1 X122.19 Y197.143 E62.80576
G1 X122.668 Y196.207 E62.93685
G1 X114.581 Y188.12 E64.3633
G1 X114.887 Y187.012 E64.50667
G1 X123.147 Y195.272 E65.96364
G1 X123.624 Y194.335 E66.09478
G1 X115.191 Y185.902 E67.58226
G1 X115.497 Y184.793 E67.72575
G1 X124.088 Y193.385 E69.2412
G1 X124.552 Y192.434 E69.37317
G1 X115.802 Y183.685 E70.91649
G1 X116.106 Y182.574 E71.06015
G1 X125.016 Y191.484 E72.63177
G1 X125.477 Y190.531 E72.76381
G1 X116.407 Y181.461 E74.36366
G1 X116.707 Y180.347 E74.50755
G1 X125.934 Y189.573 E76.135
G1 X126.391 Y188.616 E76.26727
G1 X117.009 Y179.234 E77.92215
G1 X117.31 Y178.121 E78.06595
G1 X126.847 Y187.659 E79.74826
G1 X127.304 Y186.701 E79.88065
G1 X117.61 Y177.007 E81.59056
G1 X117.911 Y175.894 E81.73436
G1 X127.759 Y185.742 E83.47144
G1 X128.212 Y184.781 E83.60395
G1 X118.207 Y174.775 E85.3688
G1 X118.503 Y173.657 E85.51305
G1 X128.665 Y183.82 E87.3056
G1 X129.117 Y182.857 E87.43828
G1 X118.798 Y172.539 E89.25835
G1 X119.095 Y171.421 E89.40263
G1 X129.568 Y181.894 E91.24994
G1 X130.018 Y180.93 E91.38263
G1 X119.39 Y170.302 E93.25729
G1 X119.686 Y169.183 E93.40166
G1 X130.468 Y179.966 E95.30357
G1 X130.917 Y179 E95.43643
G1 X119.982 Y168.065 E97.36524
G1 X120.278 Y166.947 E97.50949
G1 X131.365 Y178.034 E99.46511
G1 X131.813 Y177.068 E99.59792
G1 X120.572 Y165.827 E101.5807
G1 X120.865 Y164.705 E101.72534
G1 X132.261 Y176.102 E103.73555
G1 X132.709 Y175.135 E103.86847
G1 X121.157 Y163.584 E105.90602
G1 X121.45 Y162.462 E106.05066
G1 X133.155 Y174.167 E108.11529
G1 X133.599 Y173.197 E108.24834
G1 X121.743 Y161.341 E110.3396
G1 X122.036 Y160.219 E110.48424
G1 X134.043 Y172.227 E112.60222
G1 X134.487 Y171.257 E112.73528
G1 X122.328 Y159.098 E114.87999
G1 X122.622 Y157.977 E115.02453
G1 X134.931 Y170.286 E117.1957
G1 X135.375 Y169.316 E117.32875
G1 X122.953 Y156.894 E119.51985
G1 X123.153 Y156.463 E119.57912
G1 X123.43 Y155.957 E119.65106
G1 X135.819 Y168.346 E121.83634
G1 X136.263 Y167.376 E121.9694
G1 X124.022 Y155.134 E124.12866
G1 X124.222 Y154.895 E124.16753
G1 X124.511 Y154.579 E124.22094
G1 X124.695 Y154.393 E124.25357
G1 X136.704 Y166.402 E126.37182
G1 X137.144 Y165.429 E126.50501
G1 X125.456 Y153.74 E128.56673
G1 X125.709 Y153.555 E128.60582
G1 X125.988 Y153.368 E128.64771
G1 X126.307 Y153.177 E128.69408
G1 X137.585 Y164.455 E130.68339
G1 X138.025 Y163.48 E130.81681
G1 X127.253 Y152.708 E132.71687
G1 X127.53 Y152.595 E132.75418
G1 X127.946 Y152.452 E132.80905
G1 X128.306 Y152.348 E132.85578
G1 X138.424 Y162.466 E134.64048
G1 X138.508 Y162.131 E134.68356
G1 X138.592 Y161.684 E134.74029
G1 X138.646 Y161.274 E134.79187
G1 X129.496 Y152.123 E136.40591
G1 X129.805 Y152.092 E136.44464
G1 X130.363 Y152.063 E136.51433
G1 X130.869 Y152.082 E136.57749
G1 X138.695 Y159.908 E137.9579
G1 X138.667 Y159.516 E138.00692
G1 X138.616 Y159.099 E138.05932
G1 X138.558 Y158.756 E138.10271
G1 X138.437 Y158.236 E138.1693
G1 X132.547 Y152.346 E139.20823
G1 X132.79 Y152.411 E139.2396
G1 X133.27 Y152.57 E139.30267
G1 X133.506 Y152.66 E139.33417
G1 X134.019 Y152.884 E139.40399
G1 X134.312 Y153.035 E139.4451
G1 X134.684 Y153.242 E139.4982
G1 X134.971 Y153.423 E139.54052
G1 X135.232 Y153.601 E139.57992
G1 X135.594 Y153.872 E139.63632
G1 X135.849 Y154.084 E139.67768
G1 X136.125 Y154.333 E139.72405
G1 X136.426 Y154.634 E139.77714
G1 X136.697 Y154.932 E139.82738
G1 X136.992 Y155.291 E139.88533
G1 X137.219 Y155.603 E139.93346
G1 X135.183 Y153.568 E140.2925
G1 F1800 E138.2925
G0 F300 X135.183 Y153.568 Z0.865
G0 F4800 X125.988 Y153.368
;TIME_ELAPSED:39.554086
;LAYER:-2
M107
;TYPE:SUPPORT-INTERFACE
G1 F2700 E140.50037
G1 F4800 X125.709 Y153.555 E140.51434
G1 X125.461 Y153.734 E140.52705
G1 X125.129 Y153.999 E140.54471
G1 X124.752 Y154.337 E140.56576
G1 X124.511 Y154.579 E140.57996
G1 X124.222 Y154.895 E140.59777
G1 X124.005 Y155.156 E140.61188
G1 X123.749 Y155.491 E140.62941
G1 X123.607 Y155.697 E140.63981
G1 X123.371 Y156.077 E140.65841
G1 X126.217 Y153.231 E140.82574
G1 X126.551 Y153.031 E140.84193
G1 X127.069 Y152.783 E140.8658
G1 X127.342 Y152.672 E140.87805
G1 X122.858 Y157.155 E141.14167
G1 X122.741 Y157.52 E141.1576
G1 X122.629 Y157.95 E141.17608
G1 X128.204 Y152.375 E141.50387
G1 X128.677 Y152.257 E141.52413
G1 X128.939 Y152.206 E141.53523
G1 X122.429 Y158.715 E141.91796
G1 X122.229 Y159.481 E141.95088
G1 X129.608 Y152.102 E142.38474
G1 X130.205 Y152.071 E142.40959
G1 X122.029 Y160.247 E142.89031
G1 X121.829 Y161.013 E142.92322
G1 X130.764 Y152.078 E143.44856
G1 X131.293 Y152.114 E143.47061
G1 X121.63 Y161.778 E144.03879
G1 X121.43 Y162.544 E144.0717
G1 X131.798 Y152.175 E144.68133
G1 X132.262 Y152.276 E144.70107
G1 X121.229 Y163.309 E145.34977
G1 X121.03 Y164.074 E145.38263
G1 X132.714 Y152.39 E146.06961
G1 X133.143 Y152.527 E146.08833
G1 X120.83 Y164.84 E146.81229
G1 X120.63 Y165.606 E146.8452
G1 X133.555 Y152.681 E147.60514
G1 X133.948 Y152.853 E147.62298
G1 X120.43 Y166.372 E148.41781
G1 X120.227 Y167.14 E148.45084
G1 X134.325 Y153.042 E149.27975
G1 X134.688 Y153.244 E149.29702
G1 X120.024 Y167.909 E150.15923
G1 X119.821 Y168.678 E150.1923
G1 X135.034 Y153.465 E151.08677
G1 X135.364 Y153.7 E151.10361
G1 X119.617 Y169.447 E152.02947
G1 X119.414 Y170.216 E152.06254
G1 X135.683 Y153.947 E153.01909
G1 X135.987 Y154.208 E153.03575
G1 X119.21 Y170.986 E154.02221
G1 X119.006 Y171.755 E154.05528
G1 X136.277 Y154.485 E155.07072
G1 X136.553 Y154.774 E155.08734
G1 X118.803 Y172.524 E156.13097
G1 X118.6 Y173.293 E156.16403
G1 X136.815 Y155.077 E157.23504
G1 X137.072 Y155.387 E157.25178
G1 X118.396 Y174.062 E158.34983
G1 X118.192 Y174.832 E158.38294
G1 X137.299 Y155.725 E159.50636
G1 X137.525 Y156.065 E159.52333
G1 X117.989 Y175.601 E160.67198
G1 X117.783 Y176.372 E160.70516
G1 X137.725 Y156.431 E161.87764
G1 X137.916 Y156.805 E161.8951
G1 X117.574 Y177.147 E163.09113
G1 X117.364 Y177.923 E163.12455
G1 X138.089 Y157.198 E164.3431
G1 X138.245 Y157.608 E164.36134
G1 X117.154 Y178.698 E165.60138
G1 X116.945 Y179.473 E165.63475
G1 X138.382 Y158.036 E166.89517
G1 X138.498 Y158.486 E166.91449
G1 X116.735 Y180.249 E168.19407
G1 X116.526 Y181.024 E168.22744
G1 X138.592 Y158.957 E169.52487
G1 X138.66 Y159.456 E169.5458
G1 X116.316 Y181.799 E170.85952
G1 X116.106 Y182.574 E170.8929
G1 X138.698 Y159.983 E172.22119
G1 X138.711 Y160.535 E172.24415
G1 X115.894 Y183.352 E173.5857
G1 X115.679 Y184.133 E173.61938
G1 X138.662 Y161.151 E174.97066
G1 X138.577 Y161.801 E174.99792
G1 X115.464 Y184.914 E176.35687
G1 X115.249 Y185.694 E176.39051
G1 X138.399 Y162.544 E177.75164
G1 X138.339 Y162.736 E177.76
G1 X138.217 Y163.055 E177.7742
G1 X138.02 Y163.489 E177.79402
G1 X115.035 Y186.474 E179.14545
G1 X114.82 Y187.255 E179.17913
G1 X137.554 Y164.521 E180.5158
G1 X137.087 Y165.554 E180.56293
G1 X114.605 Y188.035 E181.88476
G1 X114.391 Y188.815 E181.91838
G1 X136.62 Y166.587 E183.22533
G1 X136.151 Y167.621 E183.27254
G1 X114.176 Y189.596 E184.56458
G1 X113.963 Y190.375 E184.59816
G1 X135.673 Y168.665 E185.87463
G1 X135.195 Y169.708 E185.92232
G1 X113.752 Y191.151 E187.18309
G1 X113.541 Y191.928 E187.21656
G1 X134.717 Y170.752 E188.46163
G1 X134.24 Y171.795 E188.50932
G1 X113.33 Y192.704 E189.73871
G1 X113.117 Y193.484 E189.77233
G1 X133.762 Y172.838 E190.98621
G1 X133.285 Y173.881 E191.03389
G1 X112.888 Y194.279 E192.23318
G1 X112.647 Y195.085 E192.26816
G1 X132.804 Y174.928 E193.45331
G1 X132.315 Y175.982 E193.50162
G1 X112.391 Y195.906 E194.67307
G1 X112.118 Y196.745 E194.70976
G1 X131.827 Y177.036 E195.86857
G1 X131.338 Y178.091 E195.91691
G1 X111.844 Y197.585 E197.06309
G1 X111.57 Y198.425 E197.09982
G1 X130.849 Y179.146 E198.23335
G1 X130.357 Y180.203 E198.28182
G1 X111.306 Y199.254 E199.40195
G1 X111.064 Y200.062 E199.43702
G1 X129.861 Y181.265 E200.54221
G1 X129.365 Y182.327 E200.59094
G1 X110.88 Y200.812 E201.67779
G1 X110.814 Y201.182 E201.69341
G1 X110.782 Y201.475 E201.70567
G1 X128.867 Y183.39 E202.769
G1 X128.362 Y184.461 E202.81822
G1 X110.779 Y202.044 E203.85204
G1 X110.839 Y202.55 E203.87322
G1 X127.857 Y185.532 E204.87381
G1 X127.349 Y186.605 E204.92317
G1 X110.929 Y203.025 E205.8886
G1 X111.076 Y203.444 E205.90707
G1 X126.833 Y187.687 E206.83352
G1 X126.317 Y188.769 E206.88335
G1 X111.256 Y203.83 E207.76888
G1 X111.46 Y204.191 E207.78612
G1 X125.8 Y189.851 E208.62926
